X:1
T:Gleason, 76.76
T:Gleason, 76.76
T:Peter Christian Lutkin, 1905
T:Public Domain Courtesy of the Cyber Hymnal™
C:Peter Christian Lutkin, 1905
Z:Public Domain
Z:Courtesy of the Cyber Hymnal™
%%score ( 1 2 ) ( 3 4 )
L:1/8
Q:1/4=105
M:4/4
K:Db
V:1 treble 
V:2 treble 
V:3 bass 
V:4 bass 
V:1
 [DF]2 ([DF][DF]) [DF]2 [DF]2 | ([DF]3 [DE]) [DE]2 [DE]2 | [CA]2 [CE]2 [CF]2 [DG]2 | [DF]8 | %4
 [DF]2 [DF][DF] [DF]2 [DF]2 | (F3 E) [DE]2 [DE]2 | [DG]2 B,2 [CF]2 [CE]2 | D8 |] %8
V:2
 x8 | x8 | x8 | x8 | x8 | D4 x4 | x2 B,2 x4 | D8 |] %8
V:3
 [D,A,]2 ([C,A,][C,A,]) [B,,D]2 [A,,F,]2 | ([G,,B,]3 [G,B,]) [G,B,]2 [G,B,]2 | %2
 [G,A,]2 [G,A,]2 [F,A,]2 [E,A,]2 | [D,A,]8 | [D,A,]2 [C,=A,][C,A,] [B,,B,]2 [=A,,_C]2 | %5
 B,4 [G,B,]2 [G,B,]2 | [E,B,]2 [E,G,]2 [A,,A,]2 [A,,G,]2 | [D,F,]8 |] %8
V:4
 x8 | x8 | x8 | x8 | x8 | (G,,3 G,) x4 | x8 | x8 |] %8

